lib/functional/office&editing/funnel.svg

<svg xmlns="http://www.w3.org/2000/svg" fill="none" stroke="currentColor" aria-hidden="true" viewBox="0 0 32 32"><g id="Icon-Funnel"><g clip-path="url(#clip0_12_706)"><g id="size=md (32px)"><g id="Funnel"><path id="Vector" stroke-linecap="round" stroke-linejoin="round" stroke-width="2" d="M5.26238 6H26.7374C26.9313 6.00006 27.1211 6.05654 27.2836 6.16254C27.446 6.26855 27.5741 6.41951 27.6523 6.59703C27.7304 6.77456 27.7553 6.97098 27.7238 7.16238C27.6923 7.35378 27.6058 7.53188 27.4749 7.675L19.2624 16.7125C19.0915 16.8955 18.9975 17.1371 18.9999 17.3875V24.4625C19.0014 24.6287 18.961 24.7926 18.8823 24.939C18.8036 25.0854 18.6893 25.2095 18.5499 25.3L14.5499 27.9625C14.3998 28.0613 14.2259 28.1179 14.0465 28.1263C13.867 28.1347 13.6886 28.0945 13.53 28.0101C13.3714 27.9257 13.2384 27.8001 13.1452 27.6466C13.0519 27.493 13.0017 27.3172 12.9999 27.1375V17.3875C13.0023 17.1371 12.9083 16.8955 12.7374 16.7125L4.52488 7.675C4.39395 7.53188 4.30747 7.35378 4.27597 7.16238C4.24447 6.97098 4.26932 6.77456 4.34748 6.59703C4.42565 6.41951 4.55375 6.26855 4.7162 6.16254C4.87864 6.05654 5.06841 6.00006 5.26238 6V6Z"/></g></g></g></g><defs><clipPath id="clip0_12_706"><rect width="32" height="32" fill="white" rx="5"/></clipPath></defs></svg>

<svg xmlns="http://www.w3.org/2000/svg" fill="none" stroke="currentColor" aria-hidden="true" viewBox="0 0 32 32"><g clip-path="url(#a)"><path stroke-linecap="round" stroke-linejoin="round" stroke-width="2" d="M5.262 6h21.475a1 1 0 0 1 .738 1.675l-8.213 9.037a.975.975 0 0 0-.262.675v7.075a.987.987 0 0 1-.45.838l-4 2.662a1 1 0 0 1-1.55-.825v-9.75a.975.975 0 0 0-.263-.675L4.525 7.675A1 1 0 0 1 5.262 6v0Z"/></g><defs><clipPath id="a"><rect width="32" height="32" fill="#fff" rx="5"/></clipPath></defs></svg>
